Mindful/img/counters-image/100-companies.svg

<svg width="48" height="48" viewBox="0 0 48 48" fill="none" xmlns="http://www.w3.org/2000/svg">
<g clip-path="url(#clip0)">
<g clip-path="url(#clip1)">
<path d="M43.6502 22.2821C43.0747 22.2863 42.5046 22.3961 41.9674 22.6063L36.2271 17.8216C36.3683 17.3 36.4689 16.7589 36.4689 16.1885C36.4689 12.8102 33.8022 10.0949 30.4844 10.0949C27.1666 10.0949 24.5 12.8102 24.5 16.1885C24.5 17.1537 24.7393 18.0532 25.1271 18.8624L18.1636 27.2423C17.8849 27.1892 17.6022 27.1607 17.3186 27.157C16.8901 27.157 16.4856 27.2301 16.093 27.3374L9.95773 21.0902C10.0655 20.6929 10.1373 20.281 10.1373 19.8447C10.1373 17.144 8.00201 14.9698 5.3497 14.9698C2.69739 14.9698 0.562134 17.144 0.562134 19.8447C0.562134 22.5454 2.69739 24.7196 5.3497 24.7196C5.77819 24.7196 6.18273 24.6464 6.57532 24.5392L12.7106 30.7864C12.5955 31.1913 12.5351 31.6104 12.531 32.0319C12.531 34.7326 14.6663 36.9068 17.3186 36.9068C19.9709 36.9068 22.1062 34.7326 22.1062 32.0319C22.1062 31.4542 21.9913 30.9107 21.8117 30.3964L28.7848 22.0067C29.3282 22.1676 29.8908 22.2821 30.4844 22.2821C31.4291 22.2768 32.3589 22.042 33.1966 21.5972L38.9393 26.3819C38.8942 26.6379 38.8686 26.897 38.8627 27.157C38.8627 29.8577 40.9979 32.0319 43.6502 32.0319C46.3025 32.0319 48.4378 29.8577 48.4378 27.157C48.4378 24.4563 46.3025 22.2821 43.6502 22.2821Z" fill="#FF7761"/>
</g>
</g>
<defs>
<clipPath id="clip0">
<rect width="48" height="48" fill="white"/>
</clipPath>
<clipPath id="clip1">
<rect width="48" height="27.0968" fill="white" transform="translate(0.5 10)"/>
</clipPath>
</defs>
</svg>

<svg width="48" height="48" fill="none" xmlns="http://www.w3.org/2000/svg"><g clip-path="url(#clip0)"><g clip-path="url(#clip1)"><path d="M43.65 22.282a4.712 4.712 0 00-1.683.324l-5.74-4.784a6.214 6.214 0 00.242-1.633c0-3.379-2.667-6.094-5.985-6.094-3.317 0-5.984 2.715-5.984 6.094 0 .965.24 1.864.627 2.673l-6.963 8.38a4.853 4.853 0 00-.845-.085c-.429 0-.833.073-1.226.18L9.958 21.09c.107-.397.18-.809.18-1.245 0-2.701-2.136-4.875-4.788-4.875-2.653 0-4.788 2.174-4.788 4.875 0 2.7 2.135 4.875 4.788 4.875.428 0 .833-.074 1.225-.18l6.136 6.246a4.724 4.724 0 00-.18 1.246c0 2.7 2.135 4.875 4.788 4.875 2.652 0 4.787-2.174 4.787-4.875a4.95 4.95 0 00-.294-1.636l6.973-8.39c.543.162 1.106.276 1.7.276a5.851 5.851 0 002.712-.685l5.742 4.785a5.14 5.14 0 00-.076.775c0 2.7 2.135 4.875 4.787 4.875 2.653 0 4.788-2.174 4.788-4.875 0-2.7-2.136-4.875-4.788-4.875z" fill="#FF7761"/></g></g><defs><clipPath id="clip0"><path fill="#fff" d="M0 0h48v48H0z"/></clipPath><clipPath id="clip1"><path fill="#fff" transform="translate(.5 10)" d="M0 0h48v27.097H0z"/></clipPath></defs></svg>
